X: 1
T:Farniente bene (R. Robert)
C:R. Robert: Tablatures
M:3/4
L:1/8
K:G
+Bd++Bd+ +Bd++Bd+|+B2d2+z+ce+ +c2e2+|\
z2 +B2d2+ +c2e2+|+d6-f6-+|+d2f2++d2f2++d2f2+|\
+d2a2++d2f2++c2e2+|+B4d4++A2c2+|+G6-B6-+|\
+G2B2++Bd++Bd+ +Bd++Bd+|
+B2d2+z+ce+ +c2e2+|\
z2 +B2d2+ +c2e2+|+d6-f6-+|+d2f2++d2f2++d2f2+|\
+d2a2++d2f2++c2e2+|+B4d4++d2f2+|\
+d6-g6-+|1 +d2g2+:|2 +d6g6+||
K:C
c2d2e2|e2d2c2|Af fA fA|+A6f6+|Bb bB aB|g2f2d2|e2 ed eg|G6|
c2d2e2|e2d2c2|Af fA fA|+A6f6+|bd aB fA|dF BD AB,|C2 B,C EG|c6-|c2||
